**kern	**kern
*staff2	*staff1
*clefF4	*clefG2
*k[b-]	*k[b-]
*M3/4	*M3/4
=-	=-
4r	12dL
.	12e-
.	12eJ
=175	=175
2.r	12fL)
.	(12FF
.	12CJ
.	12FL)
.	(12A
.	12cJ
.	12fL
.	12c
.	12aJ
=176	=176
2.r	12gL)
.	(12CC
.	12GGJ
.	12CL)
.	(12c
.	12eJ
.	12gL
.	12e
.	12b-J)
=177	=177
(4F	12r
.	(12g#L
.	12aJ)
4D	12r
.	(12eL
.	12fJ)
4BB-)	12r
.	(12dL
.	12gJ) 12b-
=178	=178
2C	(4f 4a
.	4e) 4g
4r	8.ccL
.	16ccJk
=179	=179
2.r	16ccLL
.	(16A
.	16f)
.	(16ccJJ
.	16b-LL)
.	(16G
.	16e)
.	(16b-JJ
.	16aLL)
.	(16F
.	16f)
.	16aJJ
=180	=180
2.BBB- 2.BB-	12r
.	(12gL
.	12ddJ
.	12cc#L
.	12cc
.	12bJ
.	12b-L
.	12a
.	12gJ
=181	=181
2.CC 2.C	12fL
.	12A
.	12cJ
.	12fL
.	12c
.	12aJ
.	12gL
.	12e
.	12ccJ)
=182	=182
2FF 2F	(4e 4g 4b-
.	4f) 4a
4r	8.ccL
.	16ccJk
=183	=183
2.r	16ccLL
.	(16A
.	16f)
.	(16ccJJ
.	16b-LL)
.	(16G
.	16e)
.	(16b-JJ
.	16aLL)
.	(16F
.	16f)
.	16aJJ
=184	=184
2.BB- 2.B-	12r
.	12gL
.	(12ddJ 12ff
.	12cc#L 12ee
.	12cc 12ee-
.	12b-J 12dd
.	12aL 12cc#
.	12b-) 12dd
.	12g'J 12b-'
=185	=185
*^	*^
4C 4c	2r	(12aL	2r
.	.	12cc	.
.	.	12fJ	.
4r	.	12ffL	.
.	.	12cc	.
.	.	12aJ	.
8GL	4C	12ccL	4e
.	.	12b-	.
8B-J	.	.	.
.	.	12gJ	.
=186	=186	=186	=186
4A	4F	4f)	4f
4r	4FF	4r	4r
*	*	*v	*v
*v	*v	*
*-	*-
